icons/chevron-circle-top.svg

<svg width="24" height="24" viewBox="0 0 24 24" fill="none" xmlns="http://www.w3.org/2000/svg">
<path fill-rule="evenodd" clip-rule="evenodd" d="M20.25 12C20.25 7.44365 16.5563 3.75 12 3.75C7.44365 3.75 3.75 7.44365 3.75 12C3.75 16.5563 7.44365 20.25 12 20.25C16.5563 20.25 20.25 16.5563 20.25 12ZM12 2.25C17.3848 2.25 21.75 6.61522 21.75 12C21.75 17.3848 17.3848 21.75 12 21.75C6.61522 21.75 2.25 17.3848 2.25 12C2.25 6.61522 6.61522 2.25 12 2.25Z" fill="black"/>
<path fill-rule="evenodd" clip-rule="evenodd" d="M12.1007 11.0257C12.1007 11.0257 12.1002 11.026 12.0991 11.0266L12.1007 11.0257ZM12 11.1231L8.88031 14.2428C8.58741 14.5357 8.11254 14.5357 7.81965 14.2428C7.52675 13.9499 7.52675 13.475 7.81964 13.1821L11.0196 9.98215L11.0196 9.98215C11.2844 9.71735 11.6422 9.53748 12.0375 9.53748C12.4205 9.53748 12.7804 9.70978 13.0219 10.0238L16.1803 13.1821C16.4732 13.475 16.4732 13.9499 16.1803 14.2428C15.8874 14.5357 15.4125 14.5357 15.1196 14.2428L12 11.1231Z" fill="black"/>
</svg>

<svg xmlns="http://www.w3.org/2000/svg" fill="none" viewBox="0 0 24 24">
  <path fill="#000" fill-rule="evenodd" d="M20.25 12a8.25 8.25 0 1 0-16.5 0 8.25 8.25 0 0 0 16.5 0ZM12 2.25c5.385 0 9.75 4.365 9.75 9.75s-4.365 9.75-9.75 9.75S2.25 17.385 2.25 12 6.615 2.25 12 2.25Z" clip-rule="evenodd"/>
  <path fill="#000" fill-rule="evenodd" d="M12.1 11.026Zm-.1.097-3.12 3.12a.75.75 0 1 1-1.06-1.06l3.2-3.2a1.45 1.45 0 0 1 1.018-.446c.383 0 .742.173.984.487l3.158 3.158a.75.75 0 0 1-1.06 1.06L12 11.124Z" clip-rule="evenodd"/>
</svg>
